svg/media/danmaku_on_fill.svg

<svg xmlns="http://www.w3.org/2000/svg" width="24" height="24" viewBox="0 0 24 24"><g fill="none" fill-rule="evenodd"><path d="M24,0 L24,24 L0,24 L0,0 L24,0 Z M12.5935,23.2578 L12.5819,23.2595 L12.5109,23.295 L12.4919,23.2987 L12.4767,23.295 L12.4057,23.2595 C12.3958,23.2564 12.387,23.259 12.3821,23.2649 L12.378,23.2758 L12.3609,23.7031 L12.3659,23.7235 L12.3769,23.7357 L12.4805,23.8097 L12.4953,23.8136 L12.5071,23.8097 L12.6107,23.7357 L12.6233,23.7197 L12.6267,23.7031 L12.6096,23.2758 C12.6076,23.2657 12.601,23.2593 12.5935,23.2578 Z M12.8584,23.1453 L12.8445,23.1473 L12.6598,23.2397 L12.6499,23.2499 L12.6472,23.2611 L12.6651,23.6906 L12.6699,23.7034 L12.6784,23.7105 L12.8793,23.8032 C12.8914,23.8069 12.9022,23.803 12.9078,23.7952 L12.9118,23.7812 L12.8777,23.1665 C12.8753,23.1546 12.8674,23.147 12.8584,23.1453 Z M12.143,23.1473 C12.1332,23.1424 12.1222,23.1453 12.1156,23.1526 L12.1099,23.1665 L12.0758,23.7812 C12.0751,23.7927 12.0828,23.8019 12.0926,23.8046 L12.1083,23.8032 L12.3092,23.7105 L12.3186,23.7024 L12.3225,23.6906 L12.3404,23.2611 L12.3372,23.2485 L12.3278,23.2397 L12.143,23.1473 Z"/><path fill="#09244B" d="M18,3 C19.597725,3 20.903664,4.24892392 20.9949075,5.82372764 L21,6 L21,9.76184 C19.9528125,9.54342125 18.8249414,9.80841852 17.9736621,10.5568648 L17.8072,10.713 L15.686,12.8342 C14.3189,11.4702 12.105,11.4712 10.7391,12.8371 C9.42105643,14.1550857 9.37398344,16.2627904 10.597881,17.6371846 L10.7391,17.7868 L11.1156,18.1633 L8,20.5 C7.2089216,21.09328 6.09351373,20.5752026 6.00554682,19.6214406 L6,19.5 L6,18 L5,18 C3.40232321,18 2.09633941,16.7511226 2.00509271,15.1762773 L2,15 L2,6 C2,4.40232321 3.24892392,3.09633941 4.82372764,3.00509271 L5,3 L18,3 Z M19.575,12.4807 C19.9655,12.0902 20.5986,12.0902 20.9892,12.4807 C21.3496615,12.8411615 21.3773893,13.4084207 21.0723834,13.8006973 L20.9892,13.8949 L16.3931,18.491 C16.0325462,18.8515538 15.4653651,18.8792888 15.0730224,18.5742047 L14.9788,18.491 L12.5068,16.019 C12.1163,15.6285 12.1163,14.9953 12.5068,14.6048 C12.8673538,14.2443385 13.4345349,14.2166107 13.8268776,14.5216166 L13.9211,14.6048 L15.686,16.3697 L19.575,12.4807 Z M9,12 L3,12 C2.44772,12 2,12.4477 2,13 C2,13.51285 2.38604429,13.9355092 2.88337975,13.9932725 L3,14 L9,14 C9.55228,14 10,13.5523 10,13 C10,12.48715 9.61395571,12.0644908 9.11662025,12.0067275 L9,12 Z M7,7 L5,7 C4.44772,7 4,7.44772 4,8 C4,8.55228 4.44772,9 5,9 L7,9 C7.55228,9 8,8.55228 8,8 C8,7.44772 7.55228,7 7,7 Z M19,7 L11,7 C10.4477,7 10,7.44772 10,8 C10,8.55228 10.4477,9 11,9 L19,9 C19.5523,9 20,8.55228 20,8 C20,7.44772 19.5523,7 19,7 Z"/></g></svg>

<svg xmlns="http://www.w3.org/2000/svg" width="24" height="24"><g fill="none" fill-rule="evenodd"><path d="M24 0v24H0V0zM12.594 23.258l-.012.002-.071.035-.02.004-.014-.004-.071-.036c-.01-.003-.019 0-.024.006l-.004.01-.017.428.005.02.01.013.104.074.015.004.012-.004.104-.074.012-.016.004-.017-.017-.427c-.002-.01-.009-.017-.016-.018m.264-.113-.014.002-.184.093-.01.01-.003.011.018.43.005.012.008.008.201.092c.012.004.023 0 .029-.008l.004-.014-.034-.614c-.003-.012-.01-.02-.02-.022m-.715.002a.023.023 0 0 0-.027.006l-.006.014-.034.614c0 .012.007.02.017.024l.015-.002.201-.093.01-.008.003-.011.018-.43-.003-.012-.01-.01z"/><path fill="#09244B" d="M18 3a3 3 0 0 1 2.995 2.824L21 6v3.762a3.498 3.498 0 0 0-3.026.795l-.167.156-2.121 2.121a3.5 3.5 0 0 0-5.088 4.803l.141.15.377.376L8 20.5c-.791.593-1.906.075-1.994-.879L6 19.5V18H5a3 3 0 0 1-2.995-2.824L2 15V6a3 3 0 0 1 2.824-2.995L5 3zm1.575 9.48a1 1 0 0 1 1.497 1.32l-.083.095-4.596 4.596a1 1 0 0 1-1.32.083l-.094-.083-2.472-2.472a1 1 0 0 1 1.32-1.497l.094.083 1.765 1.765zM9 12H3a1 1 0 0 0-.117 1.993L3 14h6a1 1 0 0 0 .117-1.993zM7 7H5a1 1 0 0 0 0 2h2a1 1 0 0 0 0-2m12 0h-8a1 1 0 1 0 0 2h8a1 1 0 1 0 0-2"/></g></svg>
